fs/mic_off_48_filled.svg

<svg viewBox="0 0 48 48" fill="none" xmlns="http://www.w3.org/2000/svg" height="1em" width="1em">
  <path d="M16 17.7677V24C16 28.4183 19.5817 32 24 32C25.7581 32 27.3837 31.4329 28.7039 30.4716L31.0604 32.8281C29.1117 34.3459 26.6614 35.25 24 35.25C17.6487 35.25 12.5 30.1013 12.5 23.75C12.5 23.0596 11.9404 22.5 11.25 22.5C10.5596 22.5 10 23.0596 10 23.75C10 30.9752 15.4734 36.9221 22.5 37.6706V42.75C22.5 43.4404 23.0596 44 23.75 44C24.4404 44 25 43.4404 25 42.75V37.7148C27.9627 37.5057 30.6708 36.3748 32.8394 34.6071L41.6161 43.3838C42.1043 43.872 42.8957 43.872 43.3839 43.3838C43.872 42.8957 43.872 42.1042 43.3839 41.6161L6.38388 4.61606C5.89573 4.12791 5.10427 4.12791 4.61612 4.61606C4.12796 5.10422 4.12796 5.89567 4.61612 6.38383L16 17.7677ZM34.2577 28.9544L36.1 30.7966C37.3079 28.7269 38 26.3193 38 23.75C38 23.0596 37.4404 22.5 36.75 22.5C36.0596 22.5 35.5 23.0596 35.5 23.75C35.5 25.6231 35.0522 27.3917 34.2577 28.9544ZM16.0912 10.7879L31.6502 26.3469C31.8776 25.6047 32 24.8167 32 24V12C32 7.58172 28.4183 4 24 4C19.9938 4 16.6754 6.9448 16.0912 10.7879Z" fill="#212121"/>
</svg>

<svg viewBox="0 0 48 48" fill="none" xmlns="http://www.w3.org/2000/svg" height="1em" width="1em">
  <path d="M16 17.768V24a8 8 0 0 0 12.704 6.472l2.356 2.356A11.45 11.45 0 0 1 24 35.25c-6.351 0-11.5-5.149-11.5-11.5a1.25 1.25 0 1 0-2.5 0c0 7.225 5.473 13.172 12.5 13.92v5.08a1.25 1.25 0 1 0 2.5 0v-5.035c2.963-.21 5.67-1.34 7.84-3.108l8.776 8.777a1.25 1.25 0 1 0 1.768-1.768l-37-37a1.25 1.25 0 0 0-1.768 1.768L16 17.768Zm18.258 11.186 1.842 1.843A13.936 13.936 0 0 0 38 23.75a1.25 1.25 0 1 0-2.5 0 11.45 11.45 0 0 1-1.242 5.204ZM16.09 10.788l15.56 15.559A8.01 8.01 0 0 0 31.999 24V12a8 8 0 0 0-15.909-1.212Z" fill="#212121"/>
</svg>
